X:47
T:Cameronian's Rant. Ru1.047
%%VWML:RutherfordVol1-2248-p24-0p24
Z:Transcription by Village Music Project, Steve Mansfield July 2015
F:http://www.village-music-project.org.uk/
F:http://www.vwml.org/record/RutherfordVol1/2248/p24
Z:vmp.Mike Hicken 2015 www.village-music-project.org.uk
N: * This note needs to be a crotchet on the repeat to give the correct length of bar.
M:C|
Q:1/2=80
K:Dm
f|cF F/F/F cFcF|AF F/F/F c2Ac|BG G/G/G BGBG|BG G/G/G c2"*"A :|
|: Fffg fdcA|Fffg fdcA|Ggga gfed|Ggga gfed|
Fffg fdcA|Fffg edcf|(e/f/g) dg (e/f/g) dg|e/f/g dg e2d2 |]
W:
W: The first Man sets to the 2d Wo. and turns her .|  The
W: first Wo. does the same with the 2d Man :|  Cross over
W: 2 Couples lead up to the Top & cast off .|.  Foot it to
W: your Partner & back to back :|| Rt Hand & Left
T:Jollity. Ru1.048
L:1/8
B:RUTHERFORD Complete Collection of 200 Country Dances Vol.1; London: David & John Rutherford 1756.
Z:vmp.Mike Hicken 2015 www.village-music-project.org.uk
M:6/8
Q:3/8=110
K:Bb
BcB F2E|D2F B3|Bcd cdB|ABG F3|
BcB F2E| D2F B3|Bcd cdB|f3F3 :|
|:ded ded|e2c cde|ded cdB|ABG F3|
ded ded|efg f2e|dcB FBA|B3B,3 :|
W:
W: The first Cou. gallop down one Cou. & up
W: again & cast off .|  Do the same with the 3d
W: Cou. :|  Lead up to the Top foot it & cast
W: off .|.  Hands round all six :|
|:
